icon-svg/steam.svg

<svg xmlns="http://www.w3.org/2000/svg" fill="#44739e" viewBox="0 0 24 24"><path d="M2.013 11.065s-.019.329-.01.817q0-.406.041-.8zM12 2a10 10 0 0 0-9.956 9.078l5.306 2.187a2.5 2.5 0 0 1 .465-.248 2.73 2.73 0 0 1 1.164-.206l2.43-3.53v-.049a3.773 3.773 0 1 1 3.773 3.78h-.085L11.618 15.5a2.753 2.753 0 0 1-5.441.673L2.4 14.611a9.58 9.58 0 0 1-.4-2.729V12A10 10 0 1 0 12 2m3.181 9.75a2.518 2.518 0 1 0-2.513-2.518 2.521 2.521 0 0 0 2.513 2.518M13.3 9.228a1.888 1.888 0 1 1 1.887 1.891A1.891 1.891 0 0 1 13.3 9.228m-5.254 8.305a2.124 2.124 0 0 0 2.779-1.147 2.123 2.123 0 0 0-2.711-2.807l1.272.526a1.569 1.569 0 0 1 .843 2.049A1.565 1.565 0 0 1 8.18 17l-1.228-.509a2.12 2.12 0 0 0 1.094 1.042"/></svg>

<?xml version="1.0" encoding="UTF-8"?>
<svg width="24px" fill="#44739e" height="24px" viewBox="0 0 24 24" version="1.1" xmlns="http://www.w3.org/2000/svg" xmlns:xlink="http://www.w3.org/1999/xlink">
            <path d="m 2.013,11.065 c 0,0 -0.019,0.329 -0.01,0.817 q 0,-0.406 0.041,-0.8 z M 12,2 a 10,10 0 0 0 -9.956,9.078 l 5.306,2.187 a 2.5,2.5 0 0 1 0.465,-0.248 2.73,2.73 0 0 1 1.164,-0.206 l 2.43,-3.53 v -0.049 0 a 3.773,3.773 0 1 1 3.773,3.78 H 15.097 L 11.618,15.5 A 2.753,2.753 0 0 1 6.177,16.173 L 2.4,14.611 A 9.581,9.581 0 0 1 2,11.882 C 2,11.921 2,11.96 2,12 A 10,10 0 1 0 12,2 Z m 3.181,9.75 A 2.518,2.518 0 1 0 12.668,9.232 2.521,2.521 0 0 0 15.181,11.75 Z M 13.3,9.228 A 1.888,1.888 0 1 1 15.187,11.119 1.891,1.891 0 0 1 13.3,9.228 Z m -5.254,8.305 a 2.124,2.124 0 0 0 2.779,-1.147 v 0 A 2.123,2.123 0 0 0 8.114,13.579 l 1.272,0.526 a 1.569,1.569 0 0 1 0.843,2.049 v 0 A 1.565,1.565 0 0 1 8.18,17 L 6.952,16.491 a 2.119,2.119 0 0 0 1.094,1.042 z"/>

</svg>
